X: 35881
T: Sandy Beaton's
R: slide
M: 12/8
K: Dmajor
|:F2 G|A2 F A2 d f2 d A2 d|cec ABc dcB AFG|
A2 F A2 d f2 d A3|cec ABc d3:|
|:e2 f|g2 d B2 g f2 d A2 f|ecA Ace dcB AF/G/A|
g2 d B2 g f2 d A3|ecA gfe d3:|

